X:110
T:Zigeunerpolka
O:Aus dem Kuhl\"andchen
R:Polka
Z:Bert Van Vreckem <http://flanders.blackmill.net/music/>
M:2/4
L:1/8
K:G
G/A/B/c/ dd/^c/|dd/^c/ dd|gg fe|ed d2|A>B cc/B/|cc/B/ cc|ee dc|cB B2|
gg  fe|d2 z2|ee dc|B2 z2|gg  fe|d2 z2|ee dc|B2 z2|
Bz dz|Bz dz|c>B cd|ed dz|Bz dz|Bz dz|c>B cd|B2 z2|]
